X: 3
T:Barn Dance 2
% Nottingham Music Database
P:AABA
S:McCusker Brothers
M:4/4
L:1/8
R:Hornpipe
K:G

d2|:"G"D2EF G2B_B|"G"A/3B/3A/3 GA Bd3|"C"g2fe "G"dBGB|"Am"AEFG "D7"A2d2|
"G"D2EF G2B_B|"G"A/3B/3A/3 GA Bd3|"C"g2fe "G"dBGB|"D7"AGAB "G"G2:|

d2/3e2/3f2/3|"G"gfga gdBc|"G"dedB "D7"d2 d2/3e2/3f2/3|
"G"gfga gdBc|"G"dedB "D7"A2ef|"G"gfga gdBc|
"G"dedB "D7"d2 d2/3e2/3f2/3|"G"g2/3a2/3g2/3 f2/3g2/3f2/3 "C"e2/3f2/3e2/3 d2/3e2/3d2/3|"Am"c2/3d2/3c2/3 B2/3c2/3B2/3
A2|"G"D2EF G2B_B|"G"A/3B/3A/3 GA Bd3|"C"g2fe "G"dBGB|"Am"AEFG "D7"A2d2|
"G"D2EF G2B_B|"G"A/3B/3A/3 GA Bd3|"C"g2fe "G"dBGB|"D7"AGAB "G"G2|



